**harmony	**harte	**kern	**silbe	**rhyme	**timestamp	**phrase
*M4/4	*M4/4	*ICvox	*	*	*	*
*	*	*VRlead	*	*	*	*
*	*	*Hstimme	*	*	*	*
*B-:	*B-:	*B-:	*	*	*	*
*	*	*M4/4	*	*	*	*
*	*	*clefG2	*	*	*	*
1r;	1r	r;	.	.	0	.
=1	=1	=1	=1	=1	=1	=1
*>Letter>A	*>Letter>A	*>Letter>A	*>Letter>A	*>Letter>A	*>Letter>A	*>Letter>A
*>Label>Intro	*>Label>Intro	*>Label>Intro	*>Label>Intro	*>Label>Intro	*>Label>Intro	*>Label>Intro
1FM	F:1	1r	.	.	0.348	newline
=2	=2	=2	=2	=2	=2	=2
1FM	F:1	1r	.	.	1.683	.
=3	=3	=3	=3	=3	=3	=3
1B-M	B-:1	1r	.	.	3.019	newline
=4	=4	=4	=4	=4	=4	=4
1N	N	1r	.	.	4.326	.
=5	=5	=5	=5	=5	=5	=5
1FM	F:1	1r	.	.	5.633	.
=6	=6	=6	=6	=6	=6	=6
1FM	F:1	1r	.	.	6.94	.
=7	=7	=7	=7	=7	=7	=7
1B-M	B-:maj	1r	.	.	8.247	newline
=8	=8	=8	=8	=8	=8	=8
1B-M	B-:maj	1r	.	.	9.546	.
=9	=9	=9	=9	=9	=9	=9
1B-M	B-:maj	1r	.	.	10.845	.
=10	=10	=10	=10	=10	=10	=10
1B-M	B-:maj	2r	.	.	12.145	.
.	.	4f	There's	.	.	.
.	.	4g	a	.	.	.
=11	=11	=11	=11	=11	=11	=11
*>Letter>B	*>Letter>B	*>Letter>B	*>Letter>B	*>Letter>B	*>Letter>B	*>Letter>B
*>Label>Verse	*>Label>Verse	*>Label>Verse	*>Label>Verse	*>Label>Verse	*>Label>Verse	*>Label>Verse
1B-M	B-:maj	4b-	lov-	.	13.444	newline
.	.	8b-	-ing	.	.	.
.	.	[8cc	in	.	.	.
.	.	8cc]	_	.	.	.
.	.	4dd	your	.	.	.
.	.	[8cc	eyes	.	.	.
=12	=12	=12	=12	=12	=12	=12
1FM	F:maj	4.cc]	_	.	14.755	.
.	.	8dd	all	.	.	.
.	.	4cc	_	.	.	.
.	.	8b-	the	.	.	.
.	.	8b-	way	A	.	.
=13	=13	=13	=13	=13	=13	=13
1B-M	B-:maj	8cc	_	.	16.067	.
.	.	[8b-	_	.	.	.
.	.	2.b-]	_	.	.	.
=14	=14	=14	=14	=14	=14	=14
1B-M	B-:maj	4r	.	.	17.378	.
.	.	8r	.	.	.	.
.	.	[8f	if	.	.	.
.	.	8f]	_	.	.	.
.	.	8g	I	.	.	.
.	.	4f	_	.	.	.
=15	=15	=15	=15	=15	=15	=15
1B-M	B-:maj	4b-	lis-	.	18.689	newline
.	.	8b-	-ten	.	.	.
.	.	[8cc	to	.	.	.
.	.	8cc]	_	.	.	.
.	.	4dd	your	.	.	.
.	.	[8cc	lies	.	.	.
=16	=16	=16	=16	=16	=16	=16
1FM	F:maj	4.cc]	_	.	19.987	.
.	.	8dd	would	.	.	.
.	.	4cc	_	.	.	.
.	.	4b-	you	.	.	.
=17	=17	=17	=17	=17	=17	=17
1B-M	B-:maj	1b-	say	A	21.285	.
=18	=18	=18	=18	=18	=18	=18
1B-M	B-:maj	4r	.	.	22.584	.
.	.	8r	.	.	.	.
.	.	[8dd	I'm	.	.	.
.	.	4dd]	_	.	.	.
.	.	4b-	a	.	.	.
=19	=19	=19	=19	=19	=19	=19
1E-M	E-:maj	1b-	man	.	23.882	newline
=20	=20	=20	=20	=20	=20	=20
1E-M	E-:maj	4r	.	.	25.194	.
.	.	8b-	with	.	.	.
.	.	[8a	out	.	.	.
.	.	4a]	_	.	.	.
.	.	4b-	con	.	.	.
=21	=21	=21	=21	=21	=21	=21
1FM	F:maj	4.cc	vic	(B	26.506	.
.	.	8cc	tion	b)	.	.
.	.	2dd	_	.	.	.
=22	=22	=22	=22	=22	=22	=22
1FM	F:maj	4r	.	.	27.818	.
.	.	8r	.	.	.	.
.	.	[8dd	I'm	.	.	.
.	.	4dd]	_	.	.	.
.	.	4b-	a	.	.	.
=23	=23	=23	=23	=23	=23	=23
1E-M	E-:maj	4cc	man	.	29.131	newline
.	.	2.b-	_	.	.	.
=24	=24	=24	=24	=24	=24	=24
1E-M	E-:maj	4r	.	.	30.438	.
.	.	8b-	who	.	.	.
.	.	[8a	does-	.	.	.
.	.	4a]	_	.	.	.
.	.	4b-	-n't	.	.	.
=25	=25	=25	=25	=25	=25	=25
1FM	F:maj	1cc	know	C	31.745	.
=26	=26	=26	=26	=26	=26	=26
1FM	F:maj	4r	.	.	33.052	.
.	.	8r	.	.	.	.
.	.	4.dd	how	.	.	.
.	.	4cc	to	.	.	.
=27	=27	=27	=27	=27	=27	=27
1E-M	E-:maj	4cc	sell	.	34.359	newline
.	.	2.b-	_	.	.	.
=28	=28	=28	=28	=28	=28	=28
1E-M	E-:maj	4r	.	.	35.656	.
.	.	8b-	a	.	.	.
.	.	4.a	con-	.	.	.
.	.	4b-	-tra-	.	.	.
=29	=29	=29	=29	=29	=29	=29
1FM	F:maj	4.cc	-dic-	(B	36.953	.
.	.	8cc	-tion	b)	.	.
.	.	2dd	_	.	.	.
=30	=30	=30	=30	=30	=30	=30
1FM	F:maj	4r	.	.	38.25	.
.	.	8dd	you	.	.	.
.	.	4.cc	come	.	.	.
.	.	4b-	and	.	.	.
=31	=31	=31	=31	=31	=31	=31
1Cmm	C:min7	1b-	go	C	39.547	newline
=32	=32	=32	=32	=32	=32	=32
1Cmm	C:min7	4r	.	.	40.87	.
.	.	8dd	you	.	.	.
.	.	4.cc	come	.	.	.
.	.	4b-	and	.	.	.
=33	=33	=33	=33	=33	=33	=33
1Gm	G:min	1b-	go	C	42.193	.
=34	=34	=34	=34	=34	=34	=34
1FM	F:maj	4a	_	.	43.515	.
.	.	2r	.	.	.	.
.	.	4r	.	.	.	.
=35	=35	=35	=35	=35	=35	=35
*>Letter>C	*>Letter>C	*>Letter>C	*>Letter>C	*>Letter>C	*>Letter>C	*>Letter>C
*>Label>Chorus	*>Label>Chorus	*>Label>Chorus	*>Label>Chorus	*>Label>Chorus	*>Label>Chorus	*>Label>Chorus
1B-M	B-:maj	8dd	kar-	.	44.838	newline
.	.	8dd	-ma	.	.	.
.	.	8dd	kar-	.	.	.
.	.	8dd	-ma	.	.	.
.	.	8dd	kar-	.	.	.
.	.	8dd	-ma	.	.	.
.	.	8dd	kar-	.	.	.
.	.	8dd	-ma	.	.	.
=36	=36	=36	=36	=36	=36	=36
1FMM	F:maj7/3	8cc	kar-	.	46.122	.
.	.	8cc	-ma	.	.	.
.	.	8cc	cha-	.	.	.
.	.	8cc	-me-	.	.	.
.	.	4dd	_	.	.	.
.	.	8cc	-le-	.	.	.
.	.	8b-	_	.	.	.
=37	=37	=37	=37	=37	=37	=37
1Gm	G:min	1b-	-on	.	47.407	.
=38	=38	=38	=38	=38	=38	=38
1Gm	G:min	4r	.	.	48.691	.
.	.	8b-	you	.	.	.
.	.	4.a	come	.	.	.
.	.	4b-	and	.	.	.
=39	=39	=39	=39	=39	=39	=39
1Cmm	C:min7	1cc	go	C	49.976	newline
=40	=40	=40	=40	=40	=40	=40
1Cmm	C:min7	4r	.	.	51.268	.
.	.	8dd	you	.	.	.
.	.	8dd	come-	.	.	.
.	.	4cc	_	.	.	.
.	.	4b-	-and	.	.	.
=41	=41	=41	=41	=41	=41	=41
1FM	F:sus4	[2b-	go-	C	52.561	.
.	.	8b-]	_	.	.	.
.	.	8cc	_	.	.	.
.	.	4dd	_	.	.	.
=42	=42	=42	=42	=42	=42	=42
1FM	F:maj	2cc	_	.	53.853	.
.	.	2r	.	.	.	.
=43	=43	=43	=43	=43	=43	=43
1B-M	B-:maj	8dd	-lov-	.	55.146	newline
.	.	8dd	-ing	.	.	.
.	.	8dd	would	.	.	.
.	.	8dd	be	.	.	.
.	.	8dd	ea-	.	.	.
.	.	8dd	-sy	.	.	.
.	.	8dd	if	.	.	.
.	.	8dd	your	.	.	.
=44	=44	=44	=44	=44	=44	=44
1Dmm	D:min7	8cc	co-	.	56.465	.
.	.	8cc	-lors	.	.	.
.	.	8cc	were	.	.	.
.	.	8cc	like	.	.	.
.	.	4dd	_	.	.	.
.	.	8cc	my	.	.	.
.	.	8b-	_	.	.	.
=45	=45	=45	=45	=45	=45	=45
1Gm	G:min	1b-	dreams	D	57.784	.
=46	=46	=46	=46	=46	=46	=46
1Gm	G:min	4r	.	.	59.103	.
.	.	4b-	red	.	.	.
.	.	4a	gold	.	.	.
.	.	4b-	and	.	.	.
=47	=47	=47	=47	=47	=47	=47
1Cmm	C:min7	1cc	green	D	60.422	newline
=48	=48	=48	=48	=48	=48	=48
1Cmm	C:min7	4r	.	.	61.721	.
.	.	4dd	red	.	.	.
.	.	4cc	gold	.	.	.
.	.	4b-	and	.	.	.
=49	=49	=49	=49	=49	=49	=49
1FM	F:sus4	1b-	green	D	63.02	.
=50	=50	=50	=50	=50	=50	=50
1FM	F:maj	2r	.	.	64.319	.
.	.	8f	did-	.	.	.
.	.	4.g	-n't	.	.	.
=51	=51	=51	=51	=51	=51	=51
*>Letter>B	*>Letter>B	*>Letter>B	*>Letter>B	*>Letter>B	*>Letter>B	*>Letter>B
*>Label>Verse	*>Label>Verse	*>Label>Verse	*>Label>Verse	*>Label>Verse	*>Label>Verse	*>Label>Verse
1B-M	B-:maj	4b-	hear	.	65.618	newline
.	.	8b-	your	.	.	.
.	.	[8cc	wick-	.	.	.
.	.	8cc]	_	.	.	.
.	.	4dd	-ed	.	.	.
.	.	[8cc	words	.	.	.
=52	=52	=52	=52	=52	=52	=52
1FM	F:maj	4.cc]	_	.	66.928	.
.	.	8dd	ev-	.	.	.
.	.	4cc	_	.	.	.
.	.	8b-	-ry	.	.	.
.	.	8b-	day	A	.	.
=53	=53	=53	=53	=53	=53	=53
1B-M	B-:maj	8cc	_	.	68.239	.
.	.	[8b-	_	.	.	.
.	.	2.b-]	_	.	.	.
=54	=54	=54	=54	=54	=54	=54
1B-M	B-:maj	4r	.	.	69.549	.
.	.	8r	.	.	.	.
.	.	[8f	and	.	.	.
.	.	8f]	_	.	.	.
.	.	8g	you	.	.	.
.	.	4f	_	.	.	.
=55	=55	=55	=55	=55	=55	=55
1B-M	B-:maj	4b-	used	.	70.86	newline
.	.	8b-	to	.	.	.
.	.	[8cc	be	.	.	.
.	.	8cc]	_	.	.	.
.	.	4dd	so	.	.	.
.	.	[8cc	sweet	.	.	.
=56	=56	=56	=56	=56	=56	=56
1FM	F:maj	4.cc]	_	.	72.158	.
.	.	8dd	I	.	.	.
.	.	4cc	heard	.	.	.
.	.	4b-	you	.	.	.
=57	=57	=57	=57	=57	=57	=57
1B-M	B-:maj	1b-	say	A	73.457	.
=58	=58	=58	=58	=58	=58	=58
1B-M	B-:maj	4r	.	.	74.756	.
.	.	8r	.	.	.	.
.	.	[8dd	that	.	.	.
.	.	4dd]	_	.	.	.
.	.	4b-	my	.	.	.
=59	=59	=59	=59	=59	=59	=59
1E-M	E-:maj	1b-	love	.	76.055	newline
=60	=60	=60	=60	=60	=60	=60
1E-M	E-:maj	4r	.	.	77.36	.
.	.	8b-	was	.	.	.
.	.	[8a	an	.	.	.
.	.	4a]	_	.	.	.
.	.	4b-	ad-	.	.	.
=61	=61	=61	=61	=61	=61	=61
1FM	F:maj	4.cc	-dic-	(B	78.664	.
.	.	8cc	-tion	b)	.	.
.	.	2dd	_	.	.	.
=62	=62	=62	=62	=62	=62	=62
1FM	F:maj	4r	.	.	79.969	.
.	.	8r	.	.	.	.
.	.	[8dd	when	.	.	.
.	.	4dd]	_	.	.	.
.	.	4b-	we	.	.	.
=63	=63	=63	=63	=63	=63	=63
1E-M	E-:maj	4cc	cling	D	81.274	newline
.	.	2.b-	_	.	.	.
=64	=64	=64	=64	=64	=64	=64
1E-M	E-:maj	4r	.	.	82.571	.
.	.	8b-	our	.	.	.
.	.	[8a	love	.	.	.
.	.	4a]	_	.	.	.
.	.	4b-	is	.	.	.
=65	=65	=65	=65	=65	=65	=65
1FM	F:maj	1cc	strong	.	83.868	.
=66	=66	=66	=66	=66	=66	=66
1FM	F:maj	4r	.	.	85.165	.
.	.	8r	.	.	.	.
.	.	4.dd	when	.	.	.
.	.	4cc	you	.	.	.
=67	=67	=67	=67	=67	=67	=67
1E-M	E-:maj	4cc	go	.	86.462	newline
.	.	2.b-	_	.	.	.
=68	=68	=68	=68	=68	=68	=68
1E-M	E-:maj	4r	.	.	87.771	.
.	.	8b-	you're	.	.	.
.	.	4.a	gone	.	.	.
.	.	4b-	for-	.	.	.
=69	=69	=69	=69	=69	=69	=69
1FM	F:maj	4.cc	-e-	.	89.079	.
.	.	8cc	-ver	.	.	.
.	.	2dd	_	.	.	.
=70	=70	=70	=70	=70	=70	=70
1FM	F:maj	4r	.	.	90.387	.
.	.	8dd	you	.	.	.
.	.	4.cc	string	D	.	.
.	.	4b-	a-	.	.	.
=71	=71	=71	=71	=71	=71	=71
1Cmm	C:min7	1b-	-long	.	91.696	newline
=72	=72	=72	=72	=72	=72	=72
1Cmm	C:min7	4r	.	.	93.016	.
.	.	8dd	you	.	.	.
.	.	4.cc	string	D	.	.
.	.	4b-	a-	.	.	.
=73	=73	=73	=73	=73	=73	=73
1Gm	G:min	1b-	-long	.	94.336	.
=74	=74	=74	=74	=74	=74	=74
1FM	F:maj	1r	.	.	95.656	.
=75	=75	=75	=75	=75	=75	=75
*>Letter>C	*>Letter>C	*>Letter>C	*>Letter>C	*>Letter>C	*>Letter>C	*>Letter>C
*>Label>Chorus	*>Label>Chorus	*>Label>Chorus	*>Label>Chorus	*>Label>Chorus	*>Label>Chorus	*>Label>Chorus
1B-M	B-:maj	8dd	kar-	.	96.975	newline
.	.	8dd	-ma	.	.	.
.	.	8dd	kar-	.	.	.
.	.	8dd	-ma	.	.	.
.	.	8dd	kar-	.	.	.
.	.	8dd	-ma	.	.	.
.	.	8dd	kar-	.	.	.
.	.	8dd	-ma	.	.	.
=76	=76	=76	=76	=76	=76	=76
1FMM	F:maj7/3	8cc	kar-	.	98.271	.
.	.	8cc	-ma	.	.	.
.	.	8cc	cha-	.	.	.
.	.	8cc	-me-	.	.	.
.	.	4dd	_	.	.	.
.	.	8cc	-le-	.	.	.
.	.	8b-	_	.	.	.
=77	=77	=77	=77	=77	=77	=77
1Gm	G:min	1b-	-on	.	99.566	.
=78	=78	=78	=78	=78	=78	=78
1Gm	G:min	4r	.	.	100.861	.
.	.	8b-	you	.	.	.
.	.	4.a	come	.	.	.
.	.	4b-	and	.	.	.
=79	=79	=79	=79	=79	=79	=79
1Cmm	C:min7	1cc	go	.	102.156	newline
=80	=80	=80	=80	=80	=80	=80
1Cmm	C:min7	4r	.	.	103.453	.
.	.	8dd	you	.	.	.
.	.	8dd	come	.	.	.
.	.	4cc	_	.	.	.
.	.	4b-	and	.	.	.
=81	=81	=81	=81	=81	=81	=81
1FM	F:sus4	[2b-	go	C	104.75	.
.	.	8b-]	_	.	.	.
.	.	8cc	_	.	.	.
.	.	4dd	_	.	.	.
=82	=82	=82	=82	=82	=82	=82
1FM	F:maj	2cc	_	.	106.047	.
.	.	2r	.	.	.	.
=83	=83	=83	=83	=83	=83	=83
1B-M	B-:maj	8dd	lov-	.	107.344	newline
.	.	8dd	-ing	.	.	.
.	.	8dd	would	.	.	.
.	.	8dd	be	.	.	.
.	.	8dd	ea-	.	.	.
.	.	8dd	-sy	.	.	.
.	.	8dd	if	.	.	.
.	.	8dd	your	.	.	.
=84	=84	=84	=84	=84	=84	=84
1Dmm	D:min7	8cc	col-	.	108.65	.
.	.	8cc	-ors	.	.	.
.	.	8cc	were	.	.	.
.	.	8cc	like	.	.	.
.	.	4dd	_	.	.	.
.	.	8cc	my	.	.	.
.	.	8b-	_	.	.	.
=85	=85	=85	=85	=85	=85	=85
1Gm	G:min	1b-	dream	D	109.956	.
=86	=86	=86	=86	=86	=86	=86
1Gm	G:min	4r	.	.	111.262	.
.	.	4b-	red	.	.	.
.	.	4a	gold	.	.	.
.	.	4b-	and	.	.	.
=87	=87	=87	=87	=87	=87	=87
1Cmm	C:min7	1cc	green	D	112.568	newline
=88	=88	=88	=88	=88	=88	=88
1Cmm	C:min7	4r	.	.	113.869	.
.	.	4dd	red	.	.	.
.	.	4cc	gold	.	.	.
.	.	4b-	and	.	.	.
=89	=89	=89	=89	=89	=89	=89
1FM	F:sus4	[2b-	green	D	115.17	.
.	.	8b-]	_	.	.	.
.	.	8cc	_	.	.	.
.	.	4dd	_	.	.	.
=90	=90	=90	=90	=90	=90	=90
1FM	F:maj	2cc	_	.	116.471	.
.	.	2r	.	.	.	.
=91	=91	=91	=91	=91	=91	=91
*>Letter>D	*>Letter>D	*>Letter>D	*>Letter>D	*>Letter>D	*>Letter>D	*>Letter>D
*>Label>Bridge	*>Label>Bridge	*>Label>Bridge	*>Label>Bridge	*>Label>Bridge	*>Label>Bridge	*>Label>Bridge
1E-M	E-:maj(9)	4ee-	ev-	.	117.772	newline
.	.	8ee-	-ry	.	.	.
.	.	8ee-	_	.	.	.
.	.	[2ff	day	.	.	.
=92	=92	=92	=92	=92	=92	=92
1E-M	E-:maj(9)	8ff]	_	.	119.094	.
.	.	4.ee-	is	.	.	.
.	.	4dd	like	.	.	.
.	.	8ee-	sur-	.	.	.
.	.	[8dd	-vi-	(E	.	.
=93	=93	=93	=93	=93	=93	=93
1Dmm	D:min7	4dd]	_	.	120.416	.
.	.	[2.cc	-val	e)	.	.
=94	=94	=94	=94	=94	=94	=94
1Dmm	D:min7	4cc]	_	.	121.739	.
.	.	2r	.	.	.	.
.	.	4r	.	.	.	.
=95	=95	=95	=95	=95	=95	=95
1Cm	C:min	8ee-	you're	.	123.061	newline
.	.	4ee-	my	.	.	.
.	.	8ee-	lov-	.	.	.
.	.	4ff	_	.	.	.
.	.	[4ee-	-er	.	.	.
=96	=96	=96	=96	=96	=96	=96
1Cm	C:min	4.ee-]	_	.	124.365	.
.	.	4.dd	not	.	.	.
.	.	4ee-	my	.	.	.
=97	=97	=97	=97	=97	=97	=97
1Gmm	G:min7	1dd	ri-	(E	125.668	.
=98	=98	=98	=98	=98	=98	=98
1Gmm	G:min7	2.dd	-val	e)	126.972	.
.	.	4r	.	.	.	.
=99	=99	=99	=99	=99	=99	=99
1E-M	E-:maj(9)	4ee-	ev-	.	128.275	newline
.	.	8ee-	-ry	.	.	.
.	.	8ee-	_	.	.	.
.	.	[2ff	day	.	.	.
=100	=100	=100	=100	=100	=100	=100
1E-M	E-:maj(9)	8ff]	_	.	129.581	.
.	.	4.ee-	is	.	.	.
.	.	4dd	like	.	.	.
.	.	8ee-	sur-	.	.	.
.	.	[8dd	-vi-	(E	.	.
=101	=101	=101	=101	=101	=101	=101
1Dmm	D:min7	4dd]	_	.	130.887	.
.	.	[2.cc	-val	e)	.	.
=102	=102	=102	=102	=102	=102	=102
1Dmm	D:min7	4cc]	_	.	132.193	.
.	.	2r	.	.	.	.
.	.	4r	.	.	.	.
=103	=103	=103	=103	=103	=103	=103
1Cm	C:min	8ee-	you're	.	133.499	newline
.	.	4ee-	my	.	.	.
.	.	8ee-	lov-	.	.	.
.	.	4ff	_	.	.	.
.	.	[4ee-	-er	.	.	.
=104	=104	=104	=104	=104	=104	=104
1Cm	C:min	4.ee-]	_	.	134.795	.
.	.	4.dd	not	.	.	.
.	.	4ee-	my	.	.	.
=105	=105	=105	=105	=105	=105	=105
1Gmm	G:min7	1dd	ri-	(E	136.091	.
=106	=106	=106	=106	=106	=106	=106
1FM	F:maj	1dd	-val	e)	137.387	.
=107	=107	=107	=107	=107	=107	=107
*>Letter>B	*>Letter>B	*>Letter>B	*>Letter>B	*>Letter>B	*>Letter>B	*>Letter>B
*>Label>Solo	*>Label>Solo	*>Label>Solo	*>Label>Solo	*>Label>Solo	*>Label>Solo	*>Label>Solo
1B-M	B-:maj	1r	.	.	138.684	newline
=108	=108	=108	=108	=108	=108	=108
1FM	F:maj	1r	.	.	139.989	.
=109	=109	=109	=109	=109	=109	=109
1B-M	B-:maj	1r	.	.	141.295	.
=110	=110	=110	=110	=110	=110	=110
1B-M	B-:maj	1r	.	.	142.601	.
=111	=111	=111	=111	=111	=111	=111
1B-M	B-:maj	1r	.	.	143.906	newline
=112	=112	=112	=112	=112	=112	=112
1FM	F:maj	1r	.	.	145.212	.
=113	=113	=113	=113	=113	=113	=113
1B-M	B-:maj	1r	.	.	146.518	.
=114	=114	=114	=114	=114	=114	=114
1B-M	B-:maj	4r	.	.	147.824	.
.	.	8r	.	.	.	.
.	.	[8dd	I'm	.	.	.
.	.	4dd]	_	.	.	.
.	.	4b-	a	.	.	.
=115	=115	=115	=115	=115	=115	=115
1E-M	E-:maj	1b-	man	.	149.13	newline
=116	=116	=116	=116	=116	=116	=116
1E-M	E-:maj	4r	.	.	150.443	.
.	.	8b-	with-	.	.	.
.	.	[8a	-out	.	.	.
.	.	4a]	_	.	.	.
.	.	4b-	con-	.	.	.
=117	=117	=117	=117	=117	=117	=117
1FM	F:maj	4.cc	-vic-	(B	151.755	.
.	.	8cc	-tion	b)	.	.
.	.	2dd	_	.	.	.
=118	=118	=118	=118	=118	=118	=118
1FM	F:maj	4r	.	.	153.067	.
.	.	8r	.	.	.	.
.	.	[8dd	I'm	.	.	.
.	.	4dd]	_	.	.	.
.	.	4b-	a	.	.	.
=119	=119	=119	=119	=119	=119	=119
1E-M	E-:maj	4cc	man	.	154.38	newline
.	.	2.b-	_	.	.	.
=120	=120	=120	=120	=120	=120	=120
1E-M	E-:maj	4r	.	.	155.669	.
.	.	8b-	who	.	.	.
.	.	[8a	does-	.	.	.
.	.	4a]	_	.	.	.
.	.	4b-	-n't	.	.	.
=121	=121	=121	=121	=121	=121	=121
1FM	F:maj	1cc	know	C	156.958	.
=122	=122	=122	=122	=122	=122	=122
1FM	F:maj	4r	.	.	158.247	.
.	.	8r	.	.	.	.
.	.	4.dd	how	.	.	.
.	.	4cc	to	.	.	.
=123	=123	=123	=123	=123	=123	=123
1E-M	E-:maj	4cc	sell	.	159.536	newline
.	.	2.b-	_	.	.	.
=124	=124	=124	=124	=124	=124	=124
1E-M	E-:maj	4r	.	.	160.842	.
.	.	8b-	a	.	.	.
.	.	4.a	con-	.	.	.
.	.	4b-	-tra-	.	.	.
=125	=125	=125	=125	=125	=125	=125
1FM	F:maj	4.cc	-dic-	(B	162.148	.
.	.	8cc	-tion	b)	.	.
.	.	2dd	_	.	.	.
=126	=126	=126	=126	=126	=126	=126
1FM	F:maj	4r	.	.	163.454	.
.	.	8dd	you	.	.	.
.	.	4.cc	come	.	.	.
.	.	4b-	and	.	.	.
=127	=127	=127	=127	=127	=127	=127
1Cmm	C:min7	1b-	go	C	164.76	newline
=128	=128	=128	=128	=128	=128	=128
1Cmm	C:min7	4r	.	.	166.07	.
.	.	8dd	you	.	.	.
.	.	4.cc	come	.	.	.
.	.	4b-	and	.	.	.
=129	=129	=129	=129	=129	=129	=129
1Gm	G:min	1b-	go	C	167.379	.
=130	=130	=130	=130	=130	=130	=130
1FM	F:maj	4a	_	.	168.689	.
.	.	2r	.	.	.	.
.	.	4r	.	.	.	.
=131	=131	=131	=131	=131	=131	=131
*>Letter>C	*>Letter>C	*>Letter>C	*>Letter>C	*>Letter>C	*>Letter>C	*>Letter>C
*>Label>Chorus	*>Label>Chorus	*>Label>Chorus	*>Label>Chorus	*>Label>Chorus	*>Label>Chorus	*>Label>Chorus
1B-M	B-:maj	8dd	kar-	.	169.998	newline
.	.	8dd	-ma	.	.	.
.	.	8dd	kar-	.	.	.
.	.	8dd	-ma	.	.	.
.	.	8dd	kar-	.	.	.
.	.	8dd	-ma	.	.	.
.	.	8dd	kar-	.	.	.
.	.	8dd	-ma	.	.	.
=132	=132	=132	=132	=132	=132	=132
1FMM	F:maj7/3	8cc	kar-	.	171.303	.
.	.	8cc	-ma	.	.	.
.	.	8cc	cha-	.	.	.
.	.	8cc	-me-	.	.	.
.	.	4dd	_	.	.	.
.	.	8cc	-le-	.	.	.
.	.	8b-	_	.	.	.
=133	=133	=133	=133	=133	=133	=133
1Gm	G:min	1b-	-on	.	172.608	.
=134	=134	=134	=134	=134	=134	=134
1Gm	G:min	4r	.	.	173.913	.
.	.	8b-	you	.	.	.
.	.	4.a	come	.	.	.
.	.	4b-	and	.	.	.
=135	=135	=135	=135	=135	=135	=135
1Cmm	C:min7	1cc	go	.	175.218	newline
=136	=136	=136	=136	=136	=136	=136
1Cmm	C:min7	4r	.	.	176.514	.
.	.	8dd	you	.	.	.
.	.	8dd	come	.	.	.
.	.	4cc	_	.	.	.
.	.	4b-	and	.	.	.
=137	=137	=137	=137	=137	=137	=137
1FM	F:sus4	[2b-	go	C	177.81	.
.	.	8b-]	_	.	.	.
.	.	8cc	_	.	.	.
.	.	4dd	_	.	.	.
=138	=138	=138	=138	=138	=138	=138
1FM	F:maj	2cc	_	.	179.106	.
.	.	2r	.	.	.	.
=139	=139	=139	=139	=139	=139	=139
1B-M	B-:maj	8dd	lov-	.	180.402	newline
.	.	8dd	-ing	.	.	.
.	.	8dd	would	.	.	.
.	.	8dd	be	.	.	.
.	.	8dd	ea-	.	.	.
.	.	8dd	-sy	.	.	.
.	.	8dd	if	.	.	.
.	.	8dd	your	.	.	.
=140	=140	=140	=140	=140	=140	=140
1Dmm	D:min7	8cc	col-	.	181.694	.
.	.	8cc	-ers	.	.	.
.	.	8cc	were	.	.	.
.	.	8cc	like	.	.	.
.	.	4dd	_	.	.	.
.	.	8cc	my	.	.	.
.	.	8b-	_	.	.	.
=141	=141	=141	=141	=141	=141	=141
1Gm	G:min	1b-	dreams	D	182.987	.
=142	=142	=142	=142	=142	=142	=142
1Gm	G:min	4r	.	.	184.28	.
.	.	4b-	red	.	.	.
.	.	4a	gold	.	.	.
.	.	4b-	and	.	.	.
=143	=143	=143	=143	=143	=143	=143
1Cmm	C:min7	1cc	green	D	185.572	newline
=144	=144	=144	=144	=144	=144	=144
1Cmm	C:min7	4r	.	.	186.847	.
.	.	4dd	red	.	.	.
.	.	4cc	gold	.	.	.
.	.	4b-	and	.	.	.
=145	=145	=145	=145	=145	=145	=145
1FM	F:sus4	1b-	green	D	188.122	.
=146	=146	=146	=146	=146	=146	=146
1FM	F:maj	1r	.	.	189.397	.
=147	=147	=147	=147	=147	=147	=147
*>Letter>C	*>Letter>C	*>Letter>C	*>Letter>C	*>Letter>C	*>Letter>C	*>Letter>C
*>Label>Chorus	*>Label>Chorus	*>Label>Chorus	*>Label>Chorus	*>Label>Chorus	*>Label>Chorus	*>Label>Chorus
1B-M	B-:maj	8dd	kar-	.	190.671	newline
.	.	8dd	-ma	.	.	.
.	.	8dd	kar-	.	.	.
.	.	8dd	-ma	.	.	.
.	.	8dd	kar-	.	.	.
.	.	8dd	-ma	.	.	.
.	.	8dd	kar-	.	.	.
.	.	8dd	-ma	.	.	.
=148	=148	=148	=148	=148	=148	=148
1FMM	F:maj7/3	8cc	kar-	.	191.95	.
.	.	8cc	-ma	.	.	.
.	.	8cc	cha-	.	.	.
.	.	8cc	-me-	.	.	.
.	.	4dd	_	.	.	.
.	.	8cc	-le-	.	.	.
.	.	8b-	_	.	.	.
=149	=149	=149	=149	=149	=149	=149
1Gm	G:min	1b-	-on	.	193.229	.
=150	=150	=150	=150	=150	=150	=150
1Gm	G:min	4r	.	.	194.508	.
.	.	8b-	you	.	.	.
.	.	4.a	come	.	.	.
.	.	4b-	and	.	.	.
=151	=151	=151	=151	=151	=151	=151
1Cmm	C:min7	1cc	go	.	195.787	newline
=152	=152	=152	=152	=152	=152	=152
1Cmm	C:min7	4r	.	.	197.058	.
.	.	8dd	you	.	.	.
.	.	8dd	come	.	.	.
.	.	4cc	_	.	.	.
.	.	4b-	and	.	.	.
=153	=153	=153	=153	=153	=153	=153
1FM	F:sus4	[2b-	go	C	198.329	.
.	.	8b-]	_	.	.	.
.	.	8cc	_	.	.	.
.	.	4dd	_	.	.	.
=154	=154	=154	=154	=154	=154	=154
1FM	F:maj	2cc	_	.	199.6	.
.	.	2r	.	.	.	.
=155	=155	=155	=155	=155	=155	=155
1B-M	B-:maj	8dd	lov-	.	200.871	newline
.	.	8dd	-ing	.	.	.
.	.	8dd	would	.	.	.
.	.	8dd	be	.	.	.
.	.	8dd	ea-	.	.	.
.	.	8dd	-sy	.	.	.
.	.	8dd	if	.	.	.
.	.	8dd	your	.	.	.
=156	=156	=156	=156	=156	=156	=156
1Dmm	D:min7	8cc	col-	.	202.156	.
.	.	8cc	-ors	.	.	.
.	.	8cc	were	.	.	.
.	.	8cc	like	.	.	.
.	.	4dd	_	.	.	.
.	.	8cc	my	.	.	.
.	.	8b-	_	.	.	.
=157	=157	=157	=157	=157	=157	=157
1Gm	G:min	1b-	dreams	D	203.441	.
=158	=158	=158	=158	=158	=158	=158
1Gm	G:min	4r	.	.	204.726	.
.	.	4b-	red	.	.	.
.	.	4a	gold	.	.	.
.	.	4b-	and	.	.	.
=159	=159	=159	=159	=159	=159	=159
1Cmm	C:min7	1cc	green	D	206.011	newline
=160	=160	=160	=160	=160	=160	=160
1Cmm	C:min7	4r	.	.	207.316	.
.	.	4dd	red	.	.	.
.	.	4cc	gold	.	.	.
.	.	4b-	and	.	.	.
=161	=161	=161	=161	=161	=161	=161
1FM	F:sus4	1b-	green	D	208.62	.
=162	=162	=162	=162	=162	=162	=162
1FM	F:maj	1r	.	.	209.925	.
=163	=163	=163	=163	=163	=163	=163
*>Letter>C	*>Letter>C	*>Letter>C	*>Letter>C	*>Letter>C	*>Letter>C	*>Letter>C
*>Label>Chorus	*>Label>Chorus	*>Label>Chorus	*>Label>Chorus	*>Label>Chorus	*>Label>Chorus	*>Label>Chorus
1B-M	B-:maj	8dd	kar-	.	211.23	newline
.	.	8dd	-ma	.	.	.
.	.	8dd	kar-	.	.	.
.	.	8dd	-ma	.	.	.
.	.	8dd	kar-	.	.	.
.	.	8dd	-ma	.	.	.
.	.	8dd	kar-	.	.	.
.	.	8dd	-ma	.	.	.
=164	=164	=164	=164	=164	=164	=164
1FMM	F:maj7/3	8cc	kar-	.	212.527	.
.	.	8cc	-ma	.	.	.
.	.	8cc	cha-	.	.	.
.	.	8cc	-me-	.	.	.
.	.	4dd	_	.	.	.
.	.	8cc	-le-	.	.	.
.	.	8b-	_	.	.	.
=165	=165	=165	=165	=165	=165	=165
1Gm	G:min	1b-	-on	.	213.825	.
=166	=166	=166	=166	=166	=166	=166
1Gm	G:min	4r	.	.	215.123	.
.	.	8b-	you	.	.	.
.	.	4.a	come	.	.	.
.	.	4b-	and	.	.	.
=167	=167	=167	=167	=167	=167	=167
1Cmm	C:min7	1cc	go	C	216.421	newline
=168	=168	=168	=168	=168	=168	=168
1Cmm	C:min7	4r	.	.	217.726	.
.	.	8dd	you	.	.	.
.	.	8dd	come	.	.	.
.	.	4cc	_	.	.	.
.	.	4b-	and	.	.	.
=169	=169	=169	=169	=169	=169	=169
1FM	F:sus4	[2b-	go	C	219.031	.
.	.	8b-]	_	.	.	.
.	.	8cc	_	.	.	.
.	.	4dd	_	.	.	.
=170	=170	=170	=170	=170	=170	=170
1FM	F:maj	2cc	_	.	220.336	.
.	.	2r	.	.	.	.
=171	=171	=171	=171	=171	=171	=171
1B-M	B-:maj	8dd	lov-	.	221.641	newline
.	.	8dd	-ing	.	.	.
.	.	8dd	would	.	.	.
.	.	8dd	be	.	.	.
.	.	8dd	ea-	.	.	.
.	.	8dd	-sy	.	.	.
.	.	8dd	if	.	.	.
.	.	8dd	your	.	.	.
=172	=172	=172	=172	=172	=172	=172
1Dmm	D:min7	8cc	col-	.	222.964	.
.	.	8cc	-ors	.	.	.
.	.	8cc	were	.	.	.
.	.	8cc	like	.	.	.
.	.	4dd	_	.	.	.
.	.	8cc	my	.	.	.
.	.	8b-	_	.	.	.
=173	=173	=173	=173	=173	=173	=173
1Gm	G:min	1b-	dreams	D	224.288	.
=174	=174	=174	=174	=174	=174	=174
1Gm	G:min	4r	.	.	225.612	.
.	.	4b-	red	.	.	.
.	.	4a	gold	.	.	.
.	.	4b-	and	.	.	.
=175	=175	=175	=175	=175	=175	=175
*>Label>>Fadeout	*>Label>>Fadeout	*>Label>>Fadeout	*>Label>>Fadeout	*>Label>>Fadeout	*>Label>>Fadeout	*>Label>>Fadeout
1Cmm	C:min7	1cc	green	D	226.936	newline
=176	=176	=176	=176	=176	=176	=176
1Cmm	C:min7	4r	.	.	228.2	.
.	.	4dd	red	.	.	.
.	.	4cc	gold	.	.	.
.	.	4b-	and	.	.	.
=177	=177	=177	=177	=177	=177	=177
1FM	F:sus4	1b-	green	D	229.465	.
=178	=178	=178	=178	=178	=178	=178
1FM	F:maj	1r	.	.	230.729	.
=179	=179	=179	=179	=179	=179	=179
1B-M	B-:maj	8dd	kar-	.	231.994	newline
.	.	8dd	-ma	.	.	.
.	.	8dd	kar-	.	.	.
.	.	8dd	-ma	.	.	.
.	.	8dd	kar-	.	.	.
.	.	8dd	-ma	.	.	.
.	.	8dd	kar-	.	.	.
.	.	8dd	-ma	.	.	.
1r;	1r	r;	.	.	250.404	.
1r;	1r	r;	.	.	254.616	.
*-	*-	*-	*-	*-	*-	*-
!!!BillboardChartDate: 1984/04/28
!!!BillboardPeak: 1
!!!BillboardWeeksOnChart: 22
!!!COC: Culture Club
!!!EMD: The original transcribers seemed to have transcribed the album version which is 20 seconds longer than the single version. I've removed these measures -Nat
!!!EMD: There should probably be a "prechorus" section, especially after the solo- Nat
!!!ENC: Nathaniel Condit-Schultz
!!!EST: Awating manual error checking and editing.
!!!OTL: Karma Chameleon
!!!RDF**chordsym: original McGill chord annotation + (implied pitch class set, with bass pitch in first position)
!!!RDF**harmony: **recip + pitch class of root + harmonic quality
!!!RDF**leadinstrument: original McGill primary instrumentation annotation
!!!RDF**phrase: newline = linebreak in original McGill transcription
!!!RDF**timestamp: McGill audio timestamp in seconds
!!!RDT: 2017/01/12/
!!!SampleActualRank: 97
!!!SampleID#: 0979
!!!SampleTargetRank: 99
!!!MBID: 59959335-ff14-447d-8f91-2db0ab776be2